X: 11
M:4/4
L:1/8
K:G
e/2f/2|gef^d e2 Be|dBAd FDAF|efed B^def|geB^d eBef|
gefd e2 Be|fcdA FDAf|gdeB dGAB|GEE^D E2-E||

